package/converter/svg/light/file-invoice.svg

<svg xmlns="http://www.w3.org/2000/svg" viewBox="0 0 384 512"><!-- Font Awesome Pro 6.0.0-alpha2 by @fontawesome - https://fontawesome.com License - https://fontawesome.com/license (Commercial License) --><path d="M80 160H144C152.844 160 160 152.844 160 144S152.844 128 144 128H80C71.156 128 64 135.156 64 144S71.156 160 80 160ZM80 96H144C152.844 96 160 88.844 160 80S152.844 64 144 64H80C71.156 64 64 71.156 64 80S71.156 96 80 96ZM365.256 125.254L258.746 18.746C246.744 6.742 230.465 0 213.49 0H64C28.654 0 0 28.654 0 64V448C0 483.346 28.654 512 64 512H320C355.348 512 384 483.346 384 448V170.51C384 153.535 377.258 137.258 365.256 125.254ZM224 34.076C228.477 35.643 232.666 37.922 236.119 41.375L342.627 147.879C346.08 151.332 348.357 155.523 349.924 160H240C231.188 160 224 152.828 224 144V34.076ZM352 448C352 465.645 337.645 480 320 480H64C46.355 480 32 465.645 32 448V64C32 46.355 46.355 32 64 32H192V144C192 170.469 213.531 192 240 192H352V448ZM64 272V336C64 353.641 78.359 368 96 368H288C305.641 368 320 353.641 320 336V272C320 254.359 305.641 240 288 240H96C78.359 240 64 254.359 64 272ZM288 336H96V272H288V336ZM304 416H240C231.156 416 224 423.156 224 432S231.156 448 240 448H304C312.844 448 320 440.844 320 432S312.844 416 304 416Z"/></svg>

<svg xmlns="http://www.w3.org/2000/svg" viewBox="0 0 384 512"><!--! Font Awesome Pro 6.6.0 by @fontawesome - https://fontawesome.com License - https://fontawesome.com/license (Commercial License) Copyright 2024 Fonticons, Inc. --><path d="M320 480L64 480c-17.7 0-32-14.3-32-32L32 64c0-17.7 14.3-32 32-32l128 0 0 112c0 26.5 21.5 48 48 48l112 0 0 256c0 17.7-14.3 32-32 32zM240 160c-8.8 0-16-7.2-16-16l0-111.5c2.8 .7 5.4 2.1 7.4 4.2L347.3 152.6c2.1 2.1 3.5 4.6 4.2 7.4L240 160zM64 0C28.7 0 0 28.7 0 64L0 448c0 35.3 28.7 64 64 64l256 0c35.3 0 64-28.7 64-64l0-284.1c0-12.7-5.1-24.9-14.1-33.9L254.1 14.1c-9-9-21.2-14.1-33.9-14.1L64 0zm0 80c0 8.8 7.2 16 16 16l64 0c8.8 0 16-7.2 16-16s-7.2-16-16-16L80 64c-8.8 0-16 7.2-16 16zm0 64c0 8.8 7.2 16 16 16l64 0c8.8 0 16-7.2 16-16s-7.2-16-16-16l-64 0c-8.8 0-16 7.2-16 16zM224 432c0 8.8 7.2 16 16 16l64 0c8.8 0 16-7.2 16-16s-7.2-16-16-16l-64 0c-8.8 0-16 7.2-16 16zm64-96L96 336l0-64 192 0 0 64zM96 240c-17.7 0-32 14.3-32 32l0 64c0 17.7 14.3 32 32 32l192 0c17.7 0 32-14.3 32-32l0-64c0-17.7-14.3-32-32-32L96 240z"/></svg>
